images/icones/icone-aspas-inicial.svg

<svg width="28" height="20" fill="none" xmlns="http://www.w3.org/2000/svg"><path d="M11.808 13.92c0-3.36-2.208-5.184-4.704-5.184-1.248 0-2.016.288-2.592.672 0-2.784 2.496-5.184 5.856-5.856V0C4.512.96 0 6.048 0 12c0 4.8 2.88 7.488 6.24 7.488 3.36 0 5.568-2.4 5.568-5.568Zm15.552 0c0-3.36-2.208-5.184-4.704-5.184-1.152 0-2.016.192-2.592.576 0-2.688 2.496-5.088 5.856-5.76V0c-5.952.96-10.464 6.048-10.464 12 0 4.8 2.976 7.488 6.24 7.488 3.36 0 5.664-2.4 5.664-5.568Z" fill="#FA809E" fill-opacity=".2"/></svg>

<svg width="28" height="20" viewBox="0 0 28 20" fill="none" xmlns="http://www.w3.org/2000/svg">
<path d="M11.808 13.92C11.808 10.56 9.6 8.736 7.104 8.736C5.856 8.736 5.088 9.024 4.512 9.408C4.512 6.624 7.008 4.224 10.368 3.552V0C4.512 0.959999 0 6.048 0 12C0 16.8 2.88 19.488 6.24 19.488C9.6 19.488 11.808 17.088 11.808 13.92ZM27.36 13.92C27.36 10.56 25.152 8.736 22.656 8.736C21.504 8.736 20.64 8.928 20.064 9.312C20.064 6.624 22.56 4.224 25.92 3.552V0C19.968 0.959999 15.456 6.048 15.456 12C15.456 16.8 18.432 19.488 21.696 19.488C25.056 19.488 27.36 17.088 27.36 13.92Z" fill="#FA809E" fill-opacity="0.2"/>
</svg>
